!!!!SEGMENT: pl-wnifc--6739-n_wolff-edward--nocturne.krn
!!!cenid: 18xx:3982
!!!COM: Wolff, Edward
!!!COM-rismID: pe145919
!!!CDT: 1816/09/15-1880/10/16
!!!CNT:
!!!OTL: Nocturne
!!!PDT:
!!!AGN:
!!!YEC: Copyright 2022 Narodowy Instytut Fryderyka Chopina (https://polishscores.org)
!!!YEM: License CC-BY-4.0 (https://creativecommons.org/licenses/by/4.0)
!!!SMS-siglum: PL-Wnifc
!!!SMS-shelfmark: 6739/n
!!!SMS-shelfwork: W
!!!SMS-variant:
!!!SMS-altvar:
!!!NIFC-rismSourceID: 1001157997
!!!NIFC-rismChildID: 1001158154
!!!NIFC-islandoraID: nifc:213460
!!!URL-pdf-islandora: https://repozytorium.nifc.pl/islandora/object/nifc%3A213460/datastream/PDF/view
!!!URL-scan: https://polish.musicsources.pl/pl/lokalizacje/galeria/klocki-introligatorskie/688 @EN{Scan on Polish Music Sources Website} @PL{Skany w portalu Dziedzictwo Muzyki Polskiej w otwartym dostępie}
!!!IIIF:
!!!ONB-nifc: UWAGA: skany 31-33
!!!AIN: 2 piano
!!!key: A-
**kern	**kern	**dynam
*part2	*part1	*
*staff2	*staff1	*
*I"[Piano]	*I"[Piano]	*
*I'pf	*I'pf	*
*ICklav	*ICklav	*
*Ipiano	*Ipiano	*
*clefF4	*clefG2	*
*k[b-e-a-d-]	*k[b-e-a-d-]	*
*A-:	*A-:	*
*M4/4	*M4/4	*
*met(c)	*met(c)	*
=1	=1	=1
*	*ped	*
!	!LO:TX:a:B:t=Andantino	!
!	!LO:TX:b:B:t=il basso legato	!
(>8AA-\L	1r	.
8C\ 8A-	.	.
8E-\ 8c	.	.
8A-\J) 8e-	.	.
(8AA-\L	.	.
8C\ 8A-	.	.
8E-\ 8c	.	.
8A-\J) 8e-	.	.
=2	=2	=2
!	!LO:TX:a:B:t=legato	!
(8AA-\L	2r	.
8C\ 8A-	.	.
8E-\ 8c	.	.
8A-\J) 8e-	.	.
(8AA-\L	4r	.
8C\ 8A-	.	.
!	!	!LO:HP:a
8E-\ 8c	8ee-\L	<
8A-\J) 8e-	8een\J	[[
*	*Xped	*
=3	=3	=3
*	*ped	*
(8D-\L	2ff\	.
8F\ 8d-	.	.
8A-\ 8f	.	.
*Xped	*	*
8d-\J) 8a-	.	.
.	16qqff/LL	.
.	16qqgg/	.
.	16qqaa-/JJ	.
!	!LO:TX:t=P:problem: akcent słaby zapisany w odbciu lustrzanym	!
*ped	*	*
(8D-\	4gg^<t\	.
*clefG2	*	*
8G/L 8f-X	.	.
!	!	!LO:HP:a
8B-/ 8g	8ff\L	<
8d-/J) 8b-	8gg\J	.
*clefF4	*	*
*Xped	*	*
!!LO:LB:g=original	!	!
=4	=4	=4
*ped	*	*
(8C\	8bb-\L	.
*clefG2	*	*
8A-/L 8e-	8aa-\	.
8c/ 8a-	8gg\	.
*Xped	*	*
8e-/J) 8cc	8ff\J	[
*ped	*	*
*clefF4	*	*
(8FF\L	4ee-^\	.
8F\ 8c	.	.
8A-\ 8f	8.ff\L	.
8c\J) 8a-	.	.
.	16cc\Jk	.
*Xped	*	*
=5	=5	=5
*ped	*	*
.	(>8qcc/	.
(8BB-\L	4ee-^\	.
8F\ 8d-	.	.
8B-\ 8f	8.dd-\L	.
*Xped	*	*
8d-\J) 8b-	.	.
.	16cc\Jk	.
*ped	*Xtuplet	*
!	!LO:TUP:a:problem:klamra łukowa	!
(8EE-\L	20b-\LL	.
.	20cc\	.
.	20b-\	.
8E-\ 8d-	.	.
.	20an\	.
.	20b-\JJ	.
8G\ 8e-	8.dd-^\L	.
8B-\J) 8g	.	.
.	16cc\Jk)	.
*Xped	*	*
=6	=6	=6
(8AA-\L	(2a-\	.
8C\ 8A-	.	.
8E-\ 8c	.	.
8A-\J) 8e-	.	.
(8AA-\L	4dd-\	.
8C\ 8A-	.	.
8E-\ 8c	4cc\)	.
8A-\J) 8e-	.	.
=7	=7	=7
!	!LO:TX:a:B:t=stretto	!
(8AA-\L	(4an\	<
8D-\ 8G	.	.
8E-\ 8B-	4b-\	.
8G\J) 8e-	.	.
(8AA-\L	4ee-\	.
8D-\ 8G	.	.
8E-\ 8B-	4dd-\)	.
8G\J) 8e-	.	.
!!LO:LB:g=original	!	!
=8	=8	=8
(8AA-\L	(4bn\	.
8C\ 8A-	.	.
8E-\ 8c	4cc\	.
8A-\J) 8e-	.	.
(8AA-\L	4ff^\	.
8C\ 8A-	.	.
8F\ 8c	4ee-^\)	[[
8A-\J) 8f	.	.
=9	=9	=9
(8BB-\L	16ee-\LL	f
.	16ddn\	.
*	*8va	*
8F\ 8dn	16cccc\	.
.	16bbb-\JJ	.
8A-\ 8f	16aaa-\LL	.
.	16fff\	.
8d\J) 8a-	16ccc\	.
.	16ccc#X\JJ	.
(8BB-\L	16ddd\LL	.
.	16cccn\	.
8F\ 8d	16bb-\	.
.	16aa-\JJ	.
*	*X8va	*
!	!LO:TX:a:B:t=loco	!
8A-\ 8f	16ff\LL	.
.	16aa-\	.
8d\J) 8a-	16b-\	.
.	16gg\JJ	.
=10	=10	=10
*ped	*	*
(8EE-\L	2ee-^\	.
8G\ 8e-	.	.
!	!	!LO:HP:a
8B-\ 8g	.	<
*Xped	*	*
8e-\J) 8b-	.	.
*ped	*	*
(8E-\	4ff\	.
*clefG2	*	*
8An/L 8f	.	.
8c/ 8an	4ee-\	[[
8f/J) 8cc	.	.
*clefF4	*	*
*Xped	*	*
=11	=11	=11
*ped	*	*
(8E-\L	(4dd-\	.
8F\ 8d-	.	.
8B-\ 8f	8cc\L	.
*Xped	*	*
8d-\J) 8b-	8dd-\J	.
*ped	*	*
(8EE-\L	4ee-\	.
8G\ 8e-	.	.
8B-\ 8g	4b-\)	.
8d-\J) 8b-	.	.
*Xped	*	*
!!LO:LB:g=original	!	!
=12	=12	=12
*ped	*	*
(8EE-\L	2cc^\	>
8E-\ 8c	.	.
8A-\ 8e-	.	.
*Xped	*	*
8c\J) 8a-	.	.
*ped	*	*
(8EE-\L	4dd-\	]
8F\ 8c	.	.
8A-\ 8f	4cc\	.
8c\J) 8a-	.	.
*Xped	*	*
=13	=13	=13
*ped	*tuplet	*
!	!LO:TUP:a:problem:klamra łukowa	!
(8EE-\L	10b-\L	.
.	10cc\	.
8F-X\ 8d-	.	.
.	10b-\	.
8A-\ 8f-X	.	.
.	10a-\	.
*Xped	*	*
8d-\J) 8a-	.	.
.	10b-\J	.
*ped	*	*
!	!LO:TX:b:B:t=rallent	!
(8EE-\L	4cc\	.
8E-\ 8d-	.	.
8B-\ 8e-	4g\	.
8d-\J) 8b-	.	.
*Xped	*	*
=14	=14	=14
!	!LO:TX:b:B:t=a Tempo con anima	!
(8AA-\L	4a-\	.
8C\ 8A-	.	.
8E-\ 8c	4r	.
8A-\J) 8e-	.	.
(8AA-\L	4ee-\	.
8C\ 8A-	.	.
8E-\ 8c	4een\	.
8A-\J) 8e-	.	.
=15	=15	=15
*ped	*	*
(8D-\L	2ff^\	.
8F\ 8d-	.	.
8A-\ 8f	.	.
*Xped	*	*
8d-\J) 8a-	.	.
.	16qqff/LL	<
.	16qqgg/	.
.	16qqaa-/JJ	.
*ped	*	*
(8D-\	4ggt\	.
*clefG2	*	*
8G/L 8f-X	.	.
8B-/ 8g	8ff\L	.
8d-/J) 8b-	8gg\J	[[
*clefF4	*	*
*Xped	*	*
!!LO:LB:g=original	!	!
=16	=16	=16
*ped	*	*
(>8C/	8bb-\L	<
*clefG2	*	*
8A-/L 8e-	8aa-\	.
8c/ 8a-	8gg\	.
8e-/J) 8cc	8ff\J	[
*clefF4	*	*
!	!LO:TUP:a:problem:klamra łukowa	!
*Xped	*	*
(8FF\L	20ee-\LL	<
.	20ff\	.
.	20ee-\	.
8F\ 8c	.	.
.	20ddn\	.
.	20ee-\	.
8A-\ 8f	20ccc\	.
.	20bb-\	.
.	20aa-\	.
8c\J) 8a-	.	.
.	20ee-\	.
.	20cc\JJ	[[
=17	=17	=17
*ped	*	*
(8BB-\L	4ee-^\	.
8F\ 8d-	.	.
8B-\ 8f	8.dd-\L	.
*Xped	*	*
8d-\J) 8b-	.	.
.	16cc\Jk	.
!	!LO:TUP:a:problem:klamra łukowa	!
(8CC\L	20b-\LL	.
.	20cc\	.
.	20b-\	.
8En\ 8c	.	.
.	20an\	.
.	20b-\JJ	.
8G\ 8en	8.cc\L	.
8B-\J) 8c 8g	.	.
.	16g\Jk	.
=18	=18	=18
(8FF\L	2a-\	.
8F\ 8c	.	.
8A-\ 8f	.	.
8c\J) 8a-	.	.
(8FF\L	4dd-\	.
8F\ 8d-	.	.
8A-\ 8f	4cc\	.
8d-\J) 8a-	.	.
!!LO:LB:g=original	!	!
=19	=19	=19
!	!LO:TX:a:B:t=stretto	!
(8GG\L	(4an\	.
8G\ 8e-	.	.
8B-\ 8g	4b-\	.
8d-\J) 8b-	.	.
(8GG\L	4ee-\	.
8G\ 8e-	.	.
8B-\ 8g	4dd-\)	.
8e-\J) 8b-	.	.
=20	=20	=20
(8AA-\L	4bn\	.
8E-\ 8c	.	.
8A-\ 8e-	4cc\	.
8c\J) 8a-	.	.
(8AA-\L	4ff\	.
8A-\J 8c 8f	.	.
8AAn\L	4ff#X\	.
8An\J) 8c 8e- 8f#X	.	.
=21	=21	=21
!	!LO:TX:b:B:t=conforza	!
(8BBB-\L 8BB-	4gg\	f
8G\ 8e-	.	.
*	*8va	*
8B-\ 8g	16bbb-\LL	.
.	16ggg\ 16eeee-	.
8e-\J) 8b-	16fff#X\ 16aaan	.
.	16fffn\JJ 16bbb-	.
(8BBB-\L 8BB-	16eeen\LL 16bbbn	.
.	16eee-X\ 16cccc	.
8A-\ 8dn	16dddn\ 16fff	.
!	!LO:TX:b:B:t=rallentando	!
.	16ddd-X\JJ 16ggg-X	.
8B-\ 8f	16ccc\LL 16gggn	.
.	16ccc-X\ 16aaa-X	.
8d\J) 8b-	16bb-X\ 16dddn	.
.	16aa-\JJ 16fff	.
*	*X8va	*
!!LO:PB:g=original	!	!
=22	=22	=22
*ped	*8va	*
(8EE-`\L	4gg\ 4eee-	.
8G\ 8e-	.	.
8B-\ 8g	4r	.
*Xped	*	*
8e-\J) 8b-	.	.
(8EE-`\L	12r	.
!	!LO:TX:a:B:t=a Tempo	!
!	!LO:TUP:a:problem:klamra łukowa	!
.	12gg\L 12eee-	.
8G\ 8e-	.	.
.	12gg\ 12eee-	.
8B-\ 8g	12gg\ 12eee-	.
.	12gg\ 12eee-	.
8e-\J) 8b-	.	.
.	12aa-\J 12fff	.
*	*X8va	*
=23	=23	=23
*ped	*Xtuplet	*
!	!LO:TX:b:B:t=rubato	!
(8EE-`\L	(12gg\L 12eee-	p
.	12ff\ 12dddn	.
8A-\ 8dn	.	.
.	12gg\J 12eee-	.
8B-\ 8f	12ff\L 12ddd	.
.	12ee-\ 12ccc	.
*Xped	*	*
8d\J) 8b-	.	.
.	12ff\J 12ddd	.
(8EE-`\L	12ee-\L 12aa- 12ccc	.
.	12ddn\ 12bb-	.
8A-\ 8d	.	.
.	12dd-X\J 12aan	.
8B-\ 8f	12dd-\L 12aa-X 12bb-	.
.	12ff\ 12aa- 12dddn	.
8d\J) 8b-	.	.
.	12ee-\J) 12aa- 12cccn	.
=24	=24	=24
*ped	*	*
(8EE-`\L	(12ee-\L 12ff#X 12ccc	<
.	12ee-\ 12gg 12bb-	.
8G\ 8e-	.	.
.	12gg\J 12eee-	.
8B-\ 8g	8bb-\) 8ggg	[
*Xped	*	*
8e-\J) 8b-	8r	.
(8EE-`\L	12r	.
.	(12gg\L 12eee-	.
8G\ 8e-	.	.
.	12gg\J 12eee-	.
8B-\ 8g	12gg\L 12eee-	.
.	12bb-\ 12ggg	.
8e-\J) 8b-	.	.
.	12aa-\J) 12fff	.
!!LO:LB:g=original	!	!
=25	=25	=25
(8EE-`\L	(12gg\L 12eee-	p
.	12ff\ 12dddn	.
8A-\ 8dn	.	.
.	12gg\J 12eee-	.
8B-\ 8f	12ff\L 12ddd	.
.	12ee-\ 12ccc	.
8d\J) 8b-	.	.
.	12ff\J 12ddd	.
(8EE-`\L	12ee-\L 12ccc	<
.	12ddn\ 12aa- 12bb-	.
8A-\ 8d	.	.
.	12cc#X\J 12aan	.
8B-\ 8f	12dd\L 12aa-X 12bb-	.
.	12ff\ 12aa- 12ddd	.
8d\J) 8b-	.	.
.	12ee-\J) 12aa- 12ccc	[[
=26	=26	=26
*	*ped	*
(8EE-`\L	12ee-\L 12ff#X 12ccc	<
.	12ee-\ 12gg 12bb-	.
8G\ 8e-	.	.
.	12gg\J 12eee-	.
8B-\ 8g	4bb-\ 4ggg	.
8e-\J) 8b-	.	.
*	*8va	*
!	!LO:TX:b:t=cre_scen_do:dur=29e:ext=ud:problem:text with extention lines	!
(8DD-/L	12r	[ <
.	(12bb-\L 12ggg	.
*clefG2	*	*
8B-/ 8f	.	.
.	12bb-\J 12ggg	.
8d-/ 8b-	12bb-\L 12ggg	.
.	12bb-\ 12aaa-	.
8f/J) 8dd-	.	.
.	12bb-\J) 12ggg	.
*clefF4	*	*
=27	=27	=27
(8CC/L	(12bb-\L 12fff	.
.	12bb-\ 12eeen	.
*clefG2	*	*
8G/ 8en	.	.
.	12bb-\J 12ddd#X	.
8c/ 8g	12bb-\L 12eeen	.
.	12bb-\ 12fff	.
8e/J) 8cc	.	.
.	12bb-\J 12fff#X	.
*clefF4	*	*
(8FF/L	12aan\L 12ggg	.
.	12aa\ 12fff#	.
*clefG2	*	*
8An/ 8f	.	.
.	12aa\J 12fffn	.
8c/ 8an	12aa\L 12eeen	.
.	12aa\ 12ggg	.
8f/J) 8cc	.	.
.	12aa\J) 12fff	.
*clefF4	*X8va	*
!!LO:LB:g=original	!	!
=28	=28	=28
*	*8va	*
(8BB-\L	(12aa-X\L 12eee-	.
.	12aa-\ 12dddn	.
8F\ 8dn	.	.
.	12aa-\J 12ccc#X	.
8A-\ 8f	12aa-\L 12ddd	.
.	12aa-\ 12eee-	.
8d\J) 8b-	.	.
.	12aa-\J 12eeen	.
(8E-\L	12gg\L 12fff	.
.	12gg\ 12eee	.
8G\ 8e-	.	.
.	12gg\J 12eee-X	.
8B-\ 8g	12gg\L 12ddd	.
.	12gg\ 12fff	.
8e-\J) 8b-	.	.
.	12gg\J) 12eee-	[[
=29	=29	=29
(8AA-\L	(12gg\L 12ddd-X	.
.	12aa-\ 12ccc	.
8C\ 8A-	.	.
.	12ff-X\J 12bb-	.
8F\ 8c	12gg\L 12bb-	.
.	12ffn\ 12aa-	.
8A-\J) 8e-	.	.
*	*X8va	*
!	!LO:TX:a:B:t=loco	!
.	12cc-X\J 12ff	ff
(8BB-\L	12b-\L 12ee-	<
.	12ee-\ 12gg	.
8G\ 8en	.	.
.	12cc#X\J 12bb-	.
8A-\ 8f	12cc#\L 12bb-	.
.	12ddn\ 12aa-	.
8BB-\J)	.	.
.	12aa-\J) 12fff	[[
!!LO:LB:g=original	!	!
=30	=30	=30
(8EE-`\L	4gg^\ 4eee-	.
8G\ 8e-	.	.
8B-\ 8g	4r	.
8e-\J) 8b-	.	.
(8EE-`\L	12r	p
.	(12gg\L 12eee-	.
8G\ 8e-	.	.
.	12gg\J 12eee-	.
8B-\ 8g	12gg\L 12eee-	.
.	12gg\ 12eee-	.
8e-\J) 8b-	.	.
.	12aa-\J) 12fff	.
=31	=31	=31
(8EE-`\L	(12gg\L 12eee-	.
.	12ff\ 12dddn	.
8A-\ 8dn	.	.
.	12gg\J 12eee-	.
8B-\ 8f	12ff\L 12ddd	.
.	12ee-\ 12ccc	.
8d\J) 8b-	.	.
.	12ff\J 12ddd	.
(8EE-`\L	12ee-\L 12ccc	.
.	12dd-\ 12bb-	.
8A-\ 8dn	.	.
.	12cc#X\J 12aan	.
8B-\ 8f	12dd-\L 12aa-X 12bb-	.
.	12ff\ 12aa- 12ddd	.
8d\J) 8b-	.	.
.	12ee-\J) 12aa- 12ccc	.
=32	=32	=32
(8EE-`\L	(12ee-\L 12ff#X 12ccc	.
.	12ee-\ 12bb-	.
8G\ 8e-	.	.
.	12gg\J 12eee-	.
8B-\ 8g	4bb-\) 4ggg	.
8e-\J) 8b-	.	.
(8EE-`\L	12r	.
.	(12gg\L 12eee-	.
8G\ 8e-	.	.
.	12gg\J 12eee-	.
8B-\ 8g	12gg\L 12eee-	.
.	12bb-\ 12ggg	.
8e-\J) 8b-	.	.
.	12aa-\J) 12fff	.
!!LO:LB:g=original	!	!
=33	=33	=33
(8EE-`\L	(12gg\L 12eee-	.
.	12ff\ 12dddn	.
8A-\ 8dn	.	.
.	12gg\J 12eee-	.
8B-\ 8f	12ff\L 12ddd	.
.	12ee-\ 12ccc	.
8d\J) 8b-	.	.
.	12ff\J 12ddd	.
(8EE-`\L	12ee-\L 12ccc	.
.	12ddn\ 12aa- 12bb-	.
8A-\ 8d	.	.
.	12cc#X\J 12aan	.
8B-\ 8f	12dd\L 12aa- 12bb-	.
.	12ff\ 12aany 12ddd	.
8d\J) 8b-	.	.
.	12ee-\J) 12aa 12ccc	.
=34	=34	=34
(8FF`\L	(12ee-\L 12ff#X 12ccc	.
.	12ee-\ 12gg 12bb-	.
8G\ 8e-	.	.
.	12gg\J 12eee-	.
8B-\ 8g	8bb-\) 8ggg	.
8d-\J) 8b-	8r	.
*	*8va	*
8DD-X`>/	(12bb-\L 12ggg	p
.	12bb-\ 12ggg	.
*clefG2	*	*
(8B-/L 8f	.	.
.	12bb-\J 12ggg	.
8d-/ 8b-	12bb-\L 12ggg	.
.	12bb-\ 12aaa-	.
8f/J) 8dd-	.	.
.	12bb-\J) 12ggg	.
*clefF4	*	*
=35	=35	=35
8CC`>/ 8C	(12bb-\L 12fff	.
.	12bb-\ 12eeen	.
*clefG2	*	*
(8G/L 8en	.	.
.	12bb-\J 12ddd#X	.
8c/ 8g	12bb-\L 12eee	<
.	12bb-\ 12fff	.
8e/J) 8cc	.	.
.	12bb-\J 12fff#X	.
*clefF4	*	*
(8FF/L	12aan\L 12ggg	.
.	12aa\ 12fff#	.
*clefG2	*	*
8An/ 8f	.	.
.	12aa\J 12fffn	.
8c/ 8an	12aa\L 12eeen	.
.	12aa\ 12ggg	.
8f/J) 8cc	.	.
.	12aa\J) 12fff	[[
*clefF4	*	*
!!LO:LB:g=original	!	!
=36	=36	=36
(8BB-`\L	(12aa-X\L 12eee-	.
.	12aa-\ 12dddn	.
8F\ 8dn	.	.
.	12aa-\J 12ddd#X	.
8A-\ 8f	12aa-\L 12ddd#	.
.	12aa-\ 12eee-	.
8d\J) 8b-	.	.
.	12aa-\J 12eeen	.
(8E-`\L	12gg\L 12fff	.
.	12gg\ 12eee	.
8G\ 8e-	.	.
.	12gg\J 12eee-X	.
8B-\ 8g	12gg\L 12ddd#	.
.	12gg\ 12fff	.
8e-\J) 8b-	.	.
.	12gg\J) 12eee-	.
=37	=37	=37
(8AA-`\L	(12gg\L 12ddd-X	.
.	12aa-\ 12ccc	.
8C\ 8A-	.	.
.	12ff-X\J 12bb-	.
8F\ 8c	12gg\L 12bb-	.
.	12ffn\ 12aa-	.
8A-\J) 8e-	.	.
*	*X8va	*
!	!LO:TX:a:B:t=loco	!
.	12cc-X\J 12ff	.
8BB-^\L	12b-\L 12ee-	.
.	12ee-\ 12gg	.
8G^\ 8en	.	.
.	12cc#X\J 12bb-	.
8A-^\ 8f	12cc#\L 12bb-	.
.	12ddn\ 12aa-	.
8BB-^\J	.	.
.	12bb-\J) 12ggg	.
=38	=38	=38
*ped	*	*
(8EE-`\L	4gg\ 4eee-	p
8E-\ 8B-	.	.
!	!LO:TX:a:B:t=sotto	!
8G\ 8e-	4r	.
*Xped	*	*
8B-\J) 8g	.	.
!	!LO:TX:b:B:t=tranquillo	!
!	!LO:TX:a:B:t=voce	!
(8EE-`\L	(4ee-\	.
8G\ 8e-	.	.
8B-\ 8g	4dd-\)	.
8d-\J) 8b-	.	.
!!LO:PB:g=original	!	!
=39	=39	=39
*ped	*	*
(8EE-`\L	2cc^\	.
8E-\ 8c-X	.	.
8A-\ 8e-	.	.
*Xped	*	*
8c-\J) 8a-	.	.
(8EE-`\L	4b-\	.
8E-\ 8c-	.	.
8F\ 8dn	4a-/	.
8A-\J) 8f	.	.
=40	=40	=40
*ped	*	*
.	8qg/	.
(8EE-`\L	2b-^\	.
8E-\ 8B-	.	.
8G\ 8e-	.	.
*Xped	*	*
8B-\J) 8g	.	.
(8EE-`\L	4ee-\	.
8G\ 8e-	.	.
8B-\ 8g	4dd-\	.
8d-\J) 8b-	.	.
=41	=41	=41
*ped	*	*
(8EE-`\L	2cc-X^\	.
8E-\ 8c-X	.	.
8A-\ 8e-	.	.
*Xped	*	*
8c-\J) 8a-	.	.
(8EE-`\L	4b-\	.
8E-\ 8c-	.	.
8F\ 8dn	4a-/	.
8A-\J) 8f	.	.
=42	=42	=42
*ped	*	*
!	!LO:TX:b:B:t=sempre	!
.	8qg/	.
(8EE-\L 8E-	4b-\	.
8G\ 8e-	.	.
8B-\ 8g	2ee-^\	.
*Xped	*	*
8d-\J 8b-	.	.
8c\L 8a-	.	.
8B-\ 8g	.	.
8A-\ 8f	[4ff^\	.
8F\J) 8d-	.	.
!!LO:LB:g=original	!	!
=43	=43	=43
(8EE-/L 8E-	4ff\]	.
*clefG2	*	*
8B-/ 8g	.	.
!	!LO:TX:b:t=cre_scen_do:dur=2q2h:ext=ud:problem:text with extention lines	!
8d-/ 8b-	2gg\	<
8f/J 8dd-	.	.
8e-/L 8cc	.	.
8d-/ 8b-	.	.
8c/ 8a-	[4aa-\	.
8A-/J) 8f	.	.
*clefF4	*	*
=44	=44	=44
*	*	*^
!	!	!	!LO:HP:b=2
(8EE-/L 8E-	4aa-\]	.	<
*clefG2	*	*	*
8d-/ 8b-	.	.	.
8f/ 8dd-	2bb-^\	[[	.
8a-/J 8ff	.	.	.
8g/L 8ee-	.	.	.
8f/ 8dd-	.	.	.
8e-/ 8cc	8ccc\L	.	[[
8d-/J) 8b-	8ddd-\J	.	.
*	*	*v	*v
=45	=45	=45
*	*	*^
*	*8va	*	*
!	!	!	!LO:HP:b=2
(8c/L 8a-	4eee-\	f	<
8B-/ 8g	.	.	.
8A-/ 8f	8fff\L	.	.
8G/J) 8e-	8ggg\J	.	.
*clefF4	*	*	*
!	!LO:TX:b:B:t=rallent	!	!
(8F^\L 8d-	8aaa-^\L	.	.
8E-^\ 8c	8aaan^\	.	.
8D-^\ 8B-	8bbb-^\	.	.
8EE-^;\J)	8eeee-^;\J	.	[[
*	*X8va	*	*
*	*	*v	*v
!!LO:LB:g=original	!	!
=46	=46	=46
*	*^	*
*ped	*	*	*
!	!LO:TX:b:B:t=dolce	!	!
!	!LO:TX:a:B:t=loco	!	!
(8AAA-\L	2cc/	4r	.
8E-\ 8c	.	.	.
8A-\ 8e-	.	4a-\	.
*Xped	*	*	*
8c\J) 8a-	.	.	.
*ped	*	*	*
!	!	!	!LO:DY:a
(8AAA-\L	4dd-^/	8g\L	<
8E-\ 8B-	.	8f\	.
8G\ 8e-	8ee-/L	8e-\	.
8B-\J) 8g	8ff/J	8d-\J	[[
*Xped	*	*	*
=47	=47	=47	=47
*ped	*	*	*
(8AAA-\L	8ff/L	8dn\L	.
8E-\ 8c	8ee-/J	8e-\J	.
8A-\ 8e-	[4aa-^:/	4e-:\ 4a-: 4cc:	.
*Xped	*	*	*
8c\J) 8a-	.	.	.
(8AAA-\L	8aa-/L]	4rf	<
8E-\ 8c	8ee-/	.	.
8A-\ 8e-	8cc/	4rf	.
8c\J) 8a-	8a-/J	.	[[
*	*v	*v	*
=48	=48	=48
(8CC\L	4g^\	.
8C\ 8B-	.	.
.	16qqa-/LL	.
.	16qqb-/	.
.	16qqcc/JJ	.
8En\ 8c	8a-\L	.
8B-\J) 8en	8g\J	.
(8CC\L	(16f\LL	<
.	16a-\	.
8C\ 8A-	16dd-\	.
.	16cc\JJ	.
8F\ 8c	16ff\LL	.
.	16aa-\	.
8A-\J) 8f	16ddd-\	.
.	16ccc\JJ)	[[
!!LO:LB:g=original	!	!
=49	=49	=49
*	*^	*
(8CC\L	2gg^\	2ryy	.
8C\ 8G	.	.	.
8En\ 8c	.	.	.
8G\J 8en	.	.	.
8E\L 8c	4r	4ryy	.
8C\ 8G	.	.	.
8F^\	8.g-X^/L	4An\ 4e-	f
8FF^\J)	.	.	.
.	16f/Jk	.	.
=50	=50	=50	=50
(8BBB-\L	2dd-^/	4rf	p
8F\ 8d-	.	.	.
8B-\ 8f	.	4b-\	.
8d-\J) 8b-	.	.	.
(8BBB-\L	4ee-^/	8an\L	.
8F\ 8c	.	8g-X\	.
8An\ 8f	8ff/L	8f\	.
8c\J) 8an	8gg-X/J	8e-\J	.
=51	=51	=51	=51
(8BBB-\L	8gg/L	8e-\L	.
8F\ 8d-	8ff/J	8d-\J	.
8B-\ 8f	2bb-^/	2dd-\	.
8d-\J) 8b-	.	.	.
(8FF-X\L	.	.	.
8F-X\ 8d-	.	.	.
8A-\ 8f-X	8.bb-/L	8.dd-\L	.
8d-\J) 8a-	.	.	.
.	16bb-/Jk	16dd-\Jk	.
!!LO:LB:g=original	!	!	!
=52	=52	=52	=52
*ped	*	*	*
(8EE-\L	12bb-/L	12dd-\L	>
.	12aan/	12dd-\	.
8E-\ 8B-	.	.	.
.	12bb-/J	12dd-\J	.
8G\ 8e-	12bbn/L	12dd-\L	.
.	12ccc/	12dd-\	.
*Xped	*	*	*
8B-\J) 8g	.	.	.
.	12ddd-/J	12dd-\J	.
(8FF-X\L	12ddd-/L	12dd-\L	.
.	12aa-X/	12dd-\	.
8F-X\ 8d-	.	.	.
.	12aa-/J	12ee-\J	.
8A-\ 8f-X	12aa-/L	12gg-X\L	.
.	12aa-/	12ff-X\	.
8d-\J) 8a-	.	.	.
.	12aa-/J	12ee-\J	]]
=53	=53	=53	=53
*	*	*	*^
*ped	*	*	*	*
(8EE-\L	12aa-/L	12dd-\L	<	.
.	12aan/	12dd-\	.	.
8E-\ 8A-	.	.	.	.
.	12bb-/J	12dd-\J	.	.
8G\ 8e-	12bbn/L	12dd-\L	.	.
.	12ccc/	12dd-\	.	.
*Xped	*	*	*	*
8B-\J) 8g	.	.	.	.
.	12ddd-/J	12dd-\J	.	.
!	!	!	!	!LO:HP:b=2
(8FF-X\L	12ddd-/L	12dd-\L	.	<
.	12aa-X/	12dd-\	.	.
8F-X\ 8d-	.	.	.	.
.	12aa-/J	12ee-\J	.	.
8A-\ 8f-X	12aa-/L	12gg-X\L	.	.
.	12aa-/	12ff-X\	.	.
8d-\J) 8a-	.	.	.	.
.	12aa-/J	12ee-\J	[[	[[
!!LO:PB:g=original	!	!	!
=54	=54	=54	=54	=54
(8EE-\L	12aa-/L	12dd-\L	<	.
.	12aan/	12dd-\	.	.
8E-\ 8B-	.	.	.	.
.	12bb-/J	12dd-\J	.	.
8G\ 8e-	12bbn/L	12dd-\L	.	.
.	12ccc/	12dd-\	.	.
8B-\J 8g	.	.	.	.
.	12ddd-/J	12dd-\J	.	.
!	!	!	!	!LO:HP:b=2
8d-\L 8b-	12ddd-/L	12ddn\L	.	<
.	12ddd-/	12ee-\	.	.
8B-\ 8g	.	.	.	.
.	12ddd-/J	12een\J	.	.
8G\ 8e-	12ddd-/L	12ff\L	.	.
.	12ddd-/	12ff#X\	.	.
8E-\J) 8B-	.	.	.	.
.	12ddd-/J	12gg\J	[[	[[
*	*	*	*v	*v
*	*v	*v	*
=55	=55	=55
*ped	*	*
!	!LO:TX:b:B:t=con forza	!
8AAA-/	4ee-\ 4aa- 4ccc	.
8C\L 8A-	.	.
8E-\ 8c	4a-^\ 4ee-	.
8A-\J 8e-	.	.
8c\L 8a-	8a-^\L 8ee-	.
8A-\ 8e-	8a-^\J 8ee-	.
*	*tuplet	*
!	!LO:TUP:a:problem:klamra łukowa	!
8E-\ 8c	12a-^\L 12ee-	.
.	12a-^\ 12ee-	.
8C\J 8A-	.	.
.	12a-^\J 12ee-	.
*Xped	*	*
=56	=56	=56
*ped	*	*
(8DD-\L	2a-^\ 2ee- 2ff	f
8F\ 8d-	.	.
8A-\ 8f	.	.
8d-\J) 8a-	.	.
!	!LO:TUP:a	!
(8D-\L	10a-^\L 10ee- 10ff	.
.	10a-^\ 10ee- 10ff	.
8F\ 8d-	.	.
.	10a-^\ 10ee- 10ff	.
8A-\ 8f	.	.
.	10a-^\ 10dd- 10gg	.
8d-\J) 8a-	.	.
.	10a-^\J 10dd- 10aa-	.
*Xped	*	*
!!LO:LB:g=original	!	!
=57	=57	=57
*	*^	*
*ped	*	*	*
(8EE-\L	2a-/ 2cc	4e-\	.
8E-\ 8c	.	.	.
8A-\ 8e-	.	4r	.
*Xped	*	*	*
8c\J) 8a-	.	.	.
*ped	*	*	*
(8EE-\L	4dd-^/	4g\	.
8E-\ 8B-	.	.	.
8G\ 8e-	4b-^/	4d-\	.
8B-\J) 8g	.	.	.
*Xped	*	*	*
*	*v	*v	*
=58	=58	=58
*ped	*	*
!	!LO:TX:a:B:t=ten	!
(8FF\L	1d-^> 1a- 1dd-	ff
8F\ 8d-	.	.
8A-\ 8f	.	.
8d-\J 8a-	.	.
8A-\L 8f	.	.
8F\ 8d-	.	.
8D-\ 8A-	.	.
8AA-\J) 8F	.	.
*Xped	*	*
=59	=59	=59
*ped	*Xtuplet	*
(8FF\L 8D-	(12d-\L 12a-	p
.	12a-\ 12dd-	.
8F\ 8d-	.	.
.	12a-\J 12dd-	.
8A-\ 8f	12dd-\L 12aa-	.
.	12dd-\ 12aa-	.
8d-\J) 8a-	.	.
.	12aa-\J 12ddd-	.
(8FF\L	12a-\L 12dd-	<
.	12dd-\ 12aa-	.
8F\ 8d-	.	.
.	12dd-\J 12aa-	.
8A-\ 8f	12aa-\L 12ddd-	.
.	12aa-\ 12ddd-	.
8d-\J) 8a-	.	.
.	12ddd-\J) 12aaa-	[[
*Xped	*	*
!!LO:LB:g=original	!	!
=60	=60	=60
*	*8va	*
(8EEn\L	12ddd-\L 12ggg	.
.	12ccc\ 12ggg	.
8En\ 8c	.	.
.	12bbn\J 12ggg	.
8G\ 8en	12ccc\L 12ggg	.
.	12eee-\ 12ggg	.
8c\J) 8g	.	.
.	12ddd-\J 12ggg	.
(8EE-X\L	12ccc\L 12ggg-X	<
.	12ccc-X\ 12ggg-	.
8E-y\ 8c	.	.
.	12bb\J 12ggg-	.
8G-X\ 8e-X	12aan\L 12ggg-	.
.	12bb\ 12ggg-	.
8An\J) 8g-X	.	.
.	12cccn\J 12ggg-	[[
=61	=61	=61
(8DDn/	12ccc\L 12fff	.
.	12ccc-X\ 12fff	.
8Dn\L 8B-	.	.
.	12bb-\J 12fff	.
8F\ 8dn	12aan\L 12fff	.
.	12cccn\ 12fff	.
8B-\J) 8f	.	.
.	12bb-\J 12fff	.
8DD-X`</L	12aa\L 12eee-	<
.	12aa-X\ 12eee-	.
8D-X`</J 8E- 8G 8e-	.	.
.	12gg\J 12eee-	.
4r	12gg-X\L 12eee-	.
.	12ff\ 12eee-	.
.	12ff-X\J 12eee-	[[
!!LO:LB:g=original	!	!
=62	=62	=62
*Xtuplet	*	*
12CC/ 12C	12ee-\L 12eee-	ff
!	!LO:TX:b:B:t=con fuoco	!
12C\L 12A- 12c	12ee-\ 12aa- 12eee-	.
*	*X8va	*
!	!LO:TX:a:B:t=loco	!
12C\J 12A- 12c	12ee-\J 12aa- 12eee-	.
12C\L 12A- 12c	12ee-\L 12aa- 12eee-	.
12D-\ 12B- 12d-	12ff-X\ 12gg 12fff-X	.
12DD-\J 12D-	12f-X\J 12g 12ff-	.
12DD-\L 12D-	12f-\L 12g 12ff-	.
12CC\ 12C	12e-\ 12a- 12ee-	.
12C\J 12A- 12c	12ee-\J 12aa- 12eee-	.
12C\L 12A- 12c	12ee-\L 12aa- 12eee-	.
12D-^\ 12B- 12d-	12ff-\ 12gg 12fff-	.
12DD-\J 12D-	12f-\J 12g 12ff-	.
=63	=63	=63
12DD-\L 12D-	12f-X/L 12g 12ff-X	.
12CC\ 12C	12e-/ 12a- 12ee-	.
*	*8va	*
12C\J 12A- 12c	12ee-/J 12aa- 12eee-	.
12C\L 12A- 12c	12ee-/L 12aa- 12eee-	.
12E-^\ 12c 12e-	12gg-X^/ 12aa- 12ggg-X	.
*	*X8va	*
!	!LO:TX:a:B:t=loco	!
12EE-\J 12E-	12g-/J 12a- 12gg-	.
12EE-\L 12E-	12g-/L 12a- 12gg-	.
12DDn\ 12Dn	12f-/ 12b- 12ff-	.
*	*8va	*
12D\J 12B- 12d-	12ff-/J 12bb- 12fff-	.
12D\L 12B- 12d-	12ff-/L 12bb- 12fff-	.
12E-^\ 12c 12e-	12gg-^/ 12aa- 12ggg-	.
*	*X8va	*
!	!LO:TX:a:B:t=loco	!
12EE-\J 12E-	12g-/J 12a- 12gg-	.
!!LO:LB:g=original	!	!
=64	=64	=64
12EE-\L 12E-	12g-X/L 12an 12gg-X	ff
12DDn\ 12Dn	12f/ 12b- 12ff	.
*	*8va	*
12D\J 12B- 12dny	12ff/J 12bb- 12fff	.
12D\L 12B- 12d	12ff/L 12bb- 12fff	.
12F^\ 12d 12f	12aa-X/ 12bbn 12aaa-	.
*	*X8va	*
!	!LO:TX:a:B:t=loco	!
12FF\J 12F	12a-/J 12b 12aa-	.
12FF\L 12F	12a-\L 12b 12aa-	.
12EEn\ 12En	12g-\ 12cc 12gg-	.
*	*8va	*
12E\J 12c 12en	12gg-\J 12ccc 12ggg-	.
12E\L 12c 12e	12gg-\L 12ccc 12ggg-	.
12F^\ 12d 12f	12aa-\ 12bb 12aaa-	.
*	*X8va	*
!	!LO:TX:a:B:t=loco	!
12FF\J 12F	12a-\J 12b 12aa-	.
=65	=65	=65
12FF/L 12F	12a-\L 12bn 12aa-	<
12EEn/ 12En	12g\ 12cc 12gg	.
12EE/J 12E	12cc\J 12gg 12ccc	.
12EE/L 12E	12cc\L 12gg 12ccc	.
*	*8va	*
12EE-X/ 12E-X	12gg\ 12ccc 12ggg	.
12DDn/J 12Dn	12aan\J 12ccc 12fff#X 12aaan	.
12DD/L 12D	12aa\L 12ccc 12fff# 12aaa	.
12GGG/ 12GG	12bb\ 12fffn 12bbbn	.
12GGG-X/J 12GG-X	12ccc\J 12eee- 12aaa-X 12cccc	.
12GGG-^>/L 12GG-	12ccc^\L 12eee- 12aaa- 12cccc	.
12FFF^>/J 12FF	12ddd-^\J 12aaa- 12dddd-	.
12r;	12r;	[[
*	*X8va	*
!!LO:PB:g=original	!	!
=66	=66	=66
*ped	*	*
!	!LO:TX:a:B:t=Largo	!
1GG: 1BB-: 1E-: 1G:	1d-^>: 1e-: 1b-: 1dd-:	f
*Xped	*	*
=67	=67	=67
*ped	*	*
1AA-: 1E-: 1A-:	1c^>: 1e-: 1a-: 1cc:	f
*Xped	*	*
=68	=68	=68
*ped	*	*
!	!LO:TX:a:B:t=Tempo 1o.	!
8D-\L	2ff\	.
8F\ 8d-	.	.
8A-\ 8f	.	.
*Xped	*	*
8d-\J 8a-	.	.
.	16qqff/LL	.
.	16qqgg/	.
.	16qqaa-/JJ	.
8D-\	4ggtt\	.
*clefG2	*	*
8G/L 8f-X	.	.
8B-/ 8g	8ff\L	<
8d-/J 8b-	8gg\J	.
*clefF4	*	*
=69	=69	=69
*ped	*	*
8C\	8bb-\L	.
*clefG2	*	*
8A-/L 8a-	8aa-\	.
8c/ 8a-	8gg\	.
*Xped	*	*
8e-/J 8cc	8ff\J	[
*clefF4	*	*
*ped	*	*
8FF\L	4ee-^\	.
8F\ 8c	.	.
8A-\ 8f	8.ff\L	.
8c\J 8a-	.	.
.	16cc\Jk	.
=70	=70	=70
*ped	*	*
.	8qcc/	.
8BB-\L	(4ee-^\	.
8F\ 8d-	.	.
8B-\ 8f	8.dd-\L	.
*Xped	*	*
8d-\J 8b-	.	.
.	16cc\Jk	.
*ped	*tuplet	*
!	!LO:TUP:a:problem:klamra łukowa	!
8EE-\L	20b-\LL	.
.	20cc\	.
.	20b-\	.
8E-\ 8d-	.	.
.	20an\	.
.	20b-\JJ	.
8G\ 8e-	8.dd-\L	.
8B-\J 8g	.	.
.	16cc\Jk)	.
*Xped	*	*
!!LO:LB:g=original	!	!
=71	=71	=71
(8AA-\L	(2a-\	.
8C\ 8A-	.	.
8E-\ 8c	.	.
8A-\J) 8e-	.	.
(8AA-\L	4dd-\	.
8C\ 8A-	.	.
8E-\ 8c	4cc\)	.
8A-\J) 8e-	.	.
=72	=72	=72
(8AA-\L	(4an\	<
8D-\ 8G	.	.
8E-\ 8B-	4b-\	.
8G\J) 8e-	.	.
(8AA-\L	4ee-\	.
8D-\ 8G	.	.
8E-\ 8B-	4dd-\)	.
8G\J) 8e-	.	.
=73	=73	=73
(8AA-\L	(4bn\	.
8C\ 8A-	.	.
8E-\ 8c	4cc\	.
8A-\J) 8e-	.	.
(8AA-\L	4ff^\	.
8C\ 8A-	.	.
8F\ 8c	4ee-^\)	[[
8A-\J) 8f	.	.
=74	=74	=74
(8BB-\L	16ee-\LL	f
.	16ddn\	.
*	*8va	*
8F\ 8dn	16cccc\	.
.	16bbb-\JJ	.
8A-\ 8f	16aaa-\LL	.
.	16fff\	.
8d\J) 8a-	16ccc\	.
.	16ccc#X\JJ	.
(8BB-\L	16ddd\LL	.
.	16cccn\	.
8F\ 8d	16bb-\	.
.	16aa-\JJ	.
*	*X8va	*
!	!LO:TX:a:B:t=loco	!
8A-\ 8f	16ff\LL	.
.	16aa-\	.
8d\J) 8a-	16b-\	.
.	16gg\JJ	.
!!LO:LB:g=original	!	!
=75	=75	=75
*	*ped	*
(8EE-`\L	2ee-^\	.
8G\ 8e-	.	.
8B-\ 8g	.	.
8e-\J) 8b-	.	.
*	*Xtuplet	*
!	!LO:TX:b:B:t=rubato	!
*	*Xped	*
8E-\	(12een\L	.
*	*ped	*
!	!	!LO:HP:t=cres
.	12ff\	<
*clefG2	*	*
8An/L 8f	.	.
.	12gg-X\J	.
8c/ 8any	12aan\L	.
.	12ccc\	.
8f/J 8cc	.	.
*	*Xped	*
.	12ggg-X\J	.
*clefF4	*	*
=76	=76	=76
*	*ped	*
8EE-`\L	12fff^\L	.
.	12ccc\	.
8F\ 8d-	.	.
.	12ddd-\J	.
8B-\ 8f	12fff^<\L	.
.	12aan\	.
*	*Xped	*
8d-\J 8b-	.	.
.	12bb-\J	.
*	*ped	*
8E-`\L	12ddd-\L	<
.	12ccc\	.
8G\ 8e-	.	.
.	12bb-\J	.
8B-\ 8g	12gg\L	.
.	12ee-\	.
8d-\J 8a-	.	.
*	*Xped	*
.	12dd-\J)	[[
=77	=77	=77
*	*ped	*
(8EE-`\L	(12cc\L	.
.	12dd-\	.
8E-\ 8c	.	.
.	12ddn\J	.
8A-\ 8e-	12ee-\L	.
.	12ddd-X\	.
*	*Xped	*
8c\J) 8a-	.	.
.	12ccc\J	.
!	!	!LO:HP:a
*	*ped	*
(8EE-`\L	12ccc-X\L	<
.	12aa-\	.
8F\ 8c-X	.	.
.	12ff\J	.
8A-\ 8dn	12ddn\L	.
.	12cc-X\	.
8c-\J) 8f	.	.
*	*Xped	*
.	12a-\J)	[[
!!LO:LB:g=original	!	!
=78	=78	=78
!LO:TX:t=P:problem:mixed beam	!	!
8EE-`/L	8g/	ff
*	*tuplet	*
*	*8va	*
!	!LO:TX:B:b:t=velocissimo	!
8G\ 8e-	(224%7ffff\LLL	.
.	224%7ffff-X\	.
.	224%7eeee-\	.
.	224%7ddddn\J	.
8B-\ 8g	224%7dddd-X\	.
.	224%7bbb-\	.
.	224%7ggg\	.
.	224%7fff-X\	.
*clefG2	*	*
8e-\J 8b-	224%7ddd-\	.
.	224%7bb-\	.
*	*X8va	*
!	!LO:TX:a:B:t=loco	!
.	224%7gg	.
.	224%7ff-\	.
*clefF4	*	*
4EE-`/	224%7dd-\	.
.	224%7b-\	.
.	224%7g\	.
.	224%7f-X\	.
.	224%7e-\	.
.	224%7f-\	.
.	224%7g\	.
.	224%7b-\	.
8E-^<;<:\ 8B-: 8d-: 8g:	224%7dd-\	.
.	224%7ff-\JJ	.
*	*rscale:2	*
.	224%7gg\LL 224%7fff-X	f
.	224%7ff-\ 224%7ddd-	.
8r	224%7dd-\JJ 224%7bb-	.
.	224%7b-\LL 224%7gg	.
.	224%7ee-;\ 224%7ccc	.
.	224%7dd-\JJ) 224%7bb-	.
*	*rscale:1	*
=79	=79	=79
*ped	*	*
!LO:TX:t=P:problem:mixed beam	!LO:TX:a:B:t=tranquillo	!
(8AAA-^`</L	4cc\ 4aa-	.
8E-\ 8c	.	.
8A-\ 8e-	2ee-^\	.
*Xped	*	*
8c\J 8a-	.	.
8B-\L 8g	.	.
8A-\ 8f	.	.
.	16qqee-/LL	.
.	16qqee-/JJ	.
8G\ 8e-	8.ddd-\L	.
8E-\J) 8d-	.	.
.	16ddd-\Jk	.
=80	=80	=80
*ped	*	*
(8AA-`\L	(16ccc^\LL	.
.	16bb-\	.
8E-\ 8c	16aa-\	.
.	16ff\JJ)	.
8A-\ 8e-	2ee-^\	.
*Xped	*	*
8c\J 8a-	.	.
8B-\L 8g	.	.
8A-\ 8f	.	.
.	16qqee-/LL	.
.	16qqee-/JJ	.
8G\ 8e-	8.ddd-\L	.
8E-\J) 8d-	.	.
.	16ddd-\Jk	.
!!LO:LB:g=original	!	!
=81	=81	=81
*^	*	*
*ped	*	*	*
!	!	!LO:TUP:a:problem:klamra łukowa	!
(8AA-\L	2ryy	20ddd-\LL	.
.	.	20ccc\	.
.	.	20bb-\	.
8E-\ 8c	.	.	.
.	.	20aa-\	.
.	.	20ff\JJ	.
8A-\ 8e-	.	4ee-\	.
*Xped	*	*	*
8c\J 8a-	.	.	.
8CC#X/L	2CC#\	[2een\	f
*ped	*	*	*
8En/ 8c#X	.	.	.
8G#X/ 8en	.	.	.
8c#/J) 8g#X	.	.	.
*v	*v	*	*
=82	=82	=82
(8G#X\L 8en	2ee\]	pp
8En\ 8c#X	.	.
8G#\ 8e	.	.
8A-\J 8g#X	.	.
!	!LO:TX:b:B:t=rallentando	!
8G#\L 8e	2r	.
8E\ 8c#	.	.
*Xped	*	*
8G#\ 8e	.	.
!LO:TX:B:a:t=ten	!	!
8c#\J) 8g#	.	.
=83	=83	=83
*^	*	*
*	*ped	*	*
!	!	!LO:TX:b:B:t=più mosso	!
!	!	!LO:TX:a:B:t=a Tempo	!
!	!	!LO:TX:t=P:problem: fermata nad kreską taktową	!
2GG;/	(>8GG^>\L	2ee-X^<;\	.
.	8E-\ 8B-	.	.
*	*Xped	*	*
.	8G\ 8e-	.	.
.	8B-\J) 8g	.	.
*	*ped	*	*
2AA-/	(>8AA-^>\L	2ff^<\	.
.	8F\ 8d-	.	.
.	8A-\ 8f	.	.
.	8d-\J) 8a-	.	.
*	*Xped	*	*
=84	=84	=84	=84
*	*ped	*	*
2BB-/	8BB-^>\	2ggtt\	f
*clefG2	*	*	*
.	(>8G/L 8f-X	.	.
*	*Xped	*	*
.	8B-/ 8g	.	.
.	8d-/J) 8b-	.	.
*clefF4	*	*	*
.	.	16qqff/LL	.
.	.	16qqgg/JJ	.
*	*ped	*	*
2C/	8E-\	8bb-^\L	.
*clefG2	*	*	*
.	(>8A-/L 8e-	8aa-^\	.
.	8c/ 8a-	8gg^\	.
.	8e-/J) 8cc	8ff^\J	.
*	*Xped	*	*
*clefF4	*	*	*
=85	=85	=85	=85
*	*ped	*	*
2FF^>/	(>8FF\L	4ee-^\	.
.	8F\ 8c	.	.
*	*Xped	*	*
.	8A-\ 8f	8ff\L	.
.	8c\J) 8a-	8cc\J	.
!	!	!LO:TX:t=P:problem:wydrapana główka nuty	!
*	*ped	*	*
2BBB-^>/	(>8BBB-\L	4ee-^\	.
.	8F\ 8d-	.	.
.	8B-\ 8f	8dd-\L	.
.	8d-\J) 8a-	8cc\J	.
*	*Xped	*	*
!!LO:LB:g=original	!	!	!
=86	=86	=86	=86
*	*ped	*	*
2FF-X/	(>8FF-\L	2.b-^<TT\	.
.	8F-X\ 8d-	.	.
.	8A-\ 8f-X	.	.
.	8d-\J 8a-	.	.
2ryy	8A-\L 8f-	.	.
!	!LO:TX:B:t=rallent	!	!
.	8F-\ 8d-	.	.
.	.	16qqan/LL	.
.	.	16qqb-/JJ	.
.	8E-\ 8d-	8f^\L 8dd-	.
.	8EE-^>\J) 8E-	8g^\J 8cc	.
*	*Xped	*	*
*v	*v	*	*
=87	=87	=87
*ped	*	*
!LO:TX:t=P:problem:mixed beam	!LO:TX:a:B:t=Tempo 1o.	!
(8CC^/L	4c\ 4a-	.
8E-\ 8c	.	.
!	!LO:TX:b:B:t=sotto voce	!
8A-\ 8e-	2ee-^\	.
8c\J 8a-	.	.
8A-\L 8e-	.	.
8E-\ 8c	.	.
8A-\ 8e-	8.dd-\L	.
8c\J) 8a-	.	.
.	16cc\Jk	.
=88	=88	=88
(8A-\L 8e-	[1cc^	.
8E-\ 8c	.	.
8A-\ 8e-	.	.
8c\J 8a-	.	.
8A-\L 8e-	.	.
8E-\ 8c	.	.
8A-\ 8e-	.	.
8c\J) 8a-	.	.
*Xped	*	*
=89	=89	=89
*ped	*	*
!LO:TX:t=P:problem:mixed beam	!	!
(8AAA-/L	4cc\]	.
8E-\ 8c	.	.
8A-\ 8e-	2cc^\	.
8c\J 8a-	.	.
8A-\L 8e-	.	.
8E-\ 8c	.	.
8A-\ 8e-	8.b-/L	.
8c\J) 8a-	.	.
.	16a-/Jk	.
=90	=90	=90
(8A-\L 8e-	1a-^>	.
8E-\ 8c	.	.
8A-\ 8e-	.	.
8c\J 8a-	.	.
8A-\L 8e-	.	.
8E-\ 8c	.	.
8A-\ 8e-	.	.
8c\J) 8a-	.	.
*Xped	*	*
!!LO:LB:g=original	!	!
=91	=91	=91
*ped	*	*
!LO:TX:t=P:problem:mixed beam	!LO:TX:b:B:t=grandioso	!
(8EEEn^/L	2.gg#X\	f
8En\ 8Bn	.	.
8G#X\ 8eny	.	.
8B\J 8g#X	.	.
8G#\L 8e	.	.
8E\ 8B	.	.
8G#\ 8e	8ff#X\L	.
8B\J) 8g#	8een\J	.
=92	=92	=92
(8G#X\L 8en	1ee-^	.
8En\ 8Bn	.	.
8G#\ 8e	.	.
8B\J 8g#X	.	.
8G#\L 8e	.	.
8E\ 8B	.	.
8G#\ 8e	.	.
8B\J) 8g#	.	.
*Xped	*	*
=93	=93	=93
*ped	*	*
!LO:TX:t=P:problem:mixed beam	!	!
(8EEEn/L	[1bn^	pp
8En\ 8Bn	.	.
8G#X\ 8en	.	.
8B#X\J 8g#y	.	.
8G#\L 8e	.	.
8E\ 8B#	.	.
8G#\ 8e	.	.
8B#\J) 8g#	.	.
*Xped	*	*
=94	=94	=94
8G#X\ 8en	(8b\L]	.
8r	8g#X\	.
4r	8f#X\	.
.	8en\J	.
!LO:TX:b:B:t=rallentand	!	!
2r	8Bn<^>/L	.
.	8G#X<^>/	.
.	8F#X<^>/	.
.	8En<^>/J)	.
=95	=95	=95
!	!	!LO:DY:b=2
[>1AAA- [>1AA-	[1E-X<^ [1A-< [1c<	p
=96	=96	=96
4AAA-\] 4AA-]	4E-</] 4A-<] 4c<]	.
4r	4r	.
2r	2r	.
==	==	==
*-	*-	*-
!!!system-decoration: {(s1,s2)}
!!!RDF**kern: > = above
!!!RDF**kern: < = below
!!!ENC: Andrzej Gręziak
!!!END: 2022-08-05
!!!ENC: Jan Barakat
!!!END: 2022-09-08
